X:121
T:Steirer, Privatarchiv Hofer, Sammelgut Krister eig .Amon Alois 2/3
C:traditionell
R:Steirer
B:"Hundert Steirer aus dem Ausseerland", F .Hofer, Steirisches Volksliedwerk, Graz, undated,
N:im buch in A, nr. 8:
S:Privatarchiv Hofer, Sammelgut Krister eig .Amon Alois 2/3, Grundlsee, 1857-1941
A:Grundlsee
M:3/4
L:1/8
K:C
%Quelle einstimmig
Gc |\
BgAfGf | e2 cgec | B2 GgfB | c2 Ggec |\
BgAfGf | e2 cgec | B2 GgfB | c4 :|
